public/images/poses-sm/Hero.svg

<svg width="800" height="900" fill="none" xmlns="http://www.w3.org/2000/svg"><path d="m457.266 554.156 38.266 48.807s34.786 19.982 37.988 32.792c3.202 12.809-9.607 6.405-9.607 6.405l-64.048-60.845-2.599-27.159Z" fill="#fff" stroke="#000" stroke-width="5" stroke-miterlimit="10"/><path d="m457.266 554.156 38.266 48.807s34.786 19.982 37.988 32.792c3.202 12.809-9.607 6.405-9.607 6.405l-64.048-60.845-2.599-27.159Z" stroke="#000" stroke-width="5" stroke-miterlimit="10"/><path d="M460.195 581.905c-3.821-21.01-5.751-72.532-1-99.764 1.967-11.302 23.623-51.195 3.872-83.359-23.059-37.549-58.01-97.754-42.36-122.938 11.359-18.27-33.091-31.755-33.091-31.755s7.071 45.365-3.139 63.779c-10.204 18.414-36.328 39.498-36.073 78.996.25 39.492 9.056 73.117 10.391 103.54 1.332 30.422-10.117 83.055-14.217 94.117l51.238 54.44 64.379-57.056Z" fill="#fff" stroke="#000" stroke-width="5" stroke-miterlimit="10"/><path d="M460.195 581.905c-3.821-21.01-5.751-72.532-1-99.764 1.967-11.302 23.623-51.195 3.872-83.359-23.059-37.549-58.01-97.754-42.36-122.938 11.359-18.27-33.091-31.755-33.091-31.755s7.071 45.365-3.139 63.779c-10.204 18.414-36.328 39.498-36.073 78.996.25 39.492 9.056 73.117 10.391 103.54 1.332 30.422-10.117 83.055-14.217 94.117l51.238 54.44 64.379-57.056Z" stroke="#000" stroke-width="5" stroke-miterlimit="10"/><path d="M351.641 430.453c19.522 12.408 45.203 21.628 64.779 2.054 0 0 23.955-29.39 10.924-57.158-16.997-36.202-64.62-36.202-64.62-36.202" stroke="#000" stroke-width="5" stroke-miterlimit="10"/><path d="M368.621 330.39s47.952 6.032 61.952 32.987c5.215 10.032 16.482 19.389 22.886 16.187" stroke="#000" stroke-width="5" stroke-miterlimit="10"/><path d="M377.529 195.421c-5.509-20.433-30.485-66.179-75.904-29.8-28.831 23.096-74.671 53.368-106.695 42.529-32.03-10.835-12.793 65.98 31.304 73.398 44.099 7.418 87.853-16.012 102.896-51.478 15.043-35.465 48.399-34.649 48.399-34.649Z" fill="#100200" stroke="#000" stroke-width="5" stroke-miterlimit="10"/><path d="M387.019 267.362c-6.887-9.325-3.309-19.771-6.755-32.049-5.478-19.498 16.336-42.018 38.923-43.461 29.826-1.903 44.117 103.741 27.182 107.653-10.031 2.314-29.591-4.003-45.103-19.23-4.991-4.895-14.247-12.913-14.247-12.913Z" fill="#fff" stroke="#000" stroke-width="5" stroke-miterlimit="10"/><path d="M387.019 267.362c-6.887-9.325-3.309-19.771-6.755-32.049-5.478-19.498 16.336-42.018 38.923-43.461 29.826-1.903 44.117 103.741 27.182 107.653-10.031 2.314-29.591-4.003-45.103-19.23-4.991-4.895-14.247-12.913-14.247-12.913Z" stroke="#000" stroke-width="5" stroke-miterlimit="10"/><path d="M433.079 202.692c1.865 18.611-7.735 53.859-31.774 50.585-27.03-3.681-14.452 10.695-11.8 15.38 2.651 4.684 16.512 12.475 14.07 14.191-2.443 1.721-40.209-7.305-46.995-33.649-6.788-26.345-1.952-41.078 10.943-50.999 12.892-9.925 41.556-14.827 56.436-7.942 14.879 6.882 9.12 12.434 9.12 12.434Z" fill="#100200" stroke="#000" stroke-width="5" stroke-miterlimit="10"/><path d="M350.985 555.695c22.679-45.346 97.161 27.037 108.881 25.618 22.417 6.405 144.107 108.882 156.916 131.298 7.948 13.903 3.203 16.011 0 22.416-3.202 6.404-6.404 12.809-51.237 12.809-44.834 0-128.096-28.82-144.107-38.429-16.011-9.608-35.226-9.607-41.631-9.607-6.405 0-12.81 12.81-12.81 12.81s-6.405 12.81 0 19.215c6.405 6.404 3.202 6.404 3.202 6.404s-25.618 3.202-28.82-3.202c-3.202-6.405-3.202-9.607-3.202-19.215s6.405-12.81 6.405-22.416 0-16.011 3.202-22.416c3.202-6.405 16.011 0 16.011 0l35.227 9.607c-12.81-3.202-22.417-6.405-22.417-6.405-11.117-3.702-19.127-5.332-25.619-9.607 0 0-22.416-19.214-22.416-44.833s9.607-41.631 9.607-41.631 9.606-16.012 12.808-22.416Z" fill="#fff" stroke="#000" stroke-width="5" stroke-miterlimit="10"/><path d="M350.985 555.695c22.679-45.346 97.161 27.037 108.881 25.618 22.417 6.405 144.107 108.882 156.916 131.298 7.948 13.903 3.203 16.011 0 22.416-3.202 6.404-6.404 12.809-51.237 12.809-44.834 0-128.096-28.82-144.107-38.429-16.011-9.608-35.226-9.607-41.631-9.607-6.405 0-12.81 12.81-12.81 12.81s-6.405 12.81 0 19.215c6.405 6.404 3.202 6.404 3.202 6.404s-25.618 3.202-28.82-3.202c-3.202-6.405-3.202-9.607-3.202-19.215s6.405-12.81 6.405-22.416 0-16.011 3.202-22.416c3.202-6.405 16.011 0 16.011 0l35.227 9.607c-12.81-3.202-22.417-6.405-22.417-6.405-11.117-3.702-19.127-5.332-25.619-9.607 0 0-22.416-19.214-22.416-44.833s9.607-41.631 9.607-41.631 9.606-16.012 12.808-22.416Z" stroke="#000" stroke-width="5" stroke-miterlimit="10"/><path d="M552.734 728.624s-43.225-27.784-102.388-34.858a58.347 58.347 0 0 1-6.536-1.138c-10.703-2.555-44.353-10.696-47.474-12.773" stroke="#000" stroke-width="5" stroke-miterlimit="10"/><path d="M366.996 344.338s-11.502 2.555-15.356 18.888c-3.54 15.005-14.633 70.24 23.259 148.603 6.423 13.285 15.527 25.073 26.547 34.883 22.112 19.685 61.208 55.259 68.027 66.625 9.607 16.011 48.034 35.225 54.439 38.428 6.405 3.202 12.81-3.202 9.607-9.607-3.203-6.405-48.035-51.238-54.439-51.238-5.664 0-33.859-35.46-55.81-65.824-5.505-7.612-8.98-16.466-10.169-25.785-2.978-23.235-8.576-69.257-10.878-103.736" fill="#fff"/><path d="M366.996 344.338s-11.502 2.555-15.356 18.888c-3.54 15.005-14.633 70.24 23.259 148.603 6.423 13.285 15.527 25.073 26.547 34.883 22.112 19.685 61.208 55.259 68.027 66.625 9.607 16.011 48.034 35.225 54.439 38.428 6.405 3.202 12.81-3.202 9.607-9.607-3.203-6.405-48.035-51.238-54.439-51.238-5.664 0-33.859-35.46-55.81-65.824-5.505-7.612-8.98-16.466-10.169-25.785-2.978-23.235-8.576-69.257-10.878-103.736" stroke="#000" stroke-width="5" stroke-miterlimit="10"/><path d="M366.996 344.338c-6.674 3.171-10.726 9.338-12.854 15.867-1.933 6.681-3.183 13.967-3.999 21.06a194.676 194.676 0 0 0 .172 43.163c3.176 28.734 12.166 56.611 24.371 82.792 5.729 13.216 14.163 25.041 24.483 34.989 10.641 9.706 21.633 19.408 32.257 29.315 10.65 9.93 21.275 19.883 31.263 30.605 2.492 2.705 4.926 5.442 7.158 8.537l3.055 4.397c1.146 1.308 2.218 2.671 3.506 3.878 5.025 4.96 10.858 9.233 16.838 13.223 6 3.978 12.221 7.668 18.557 11.151a366.65 366.65 0 0 0 9.582 5.08c1.55.753 3.397 1.823 4.571 2.138 1.326.348 2.721.226 3.885-.437 2.414-1.309 3.346-4.448 2.031-6.99-.597-1.143-1.872-2.652-2.971-3.976a148.171 148.171 0 0 0-3.561-4.037c-4.863-5.326-9.949-10.502-15.096-15.596-5.154-5.088-10.408-10.083-15.787-14.907-2.696-2.405-5.422-4.769-8.218-6.996a68.833 68.833 0 0 0-4.242-3.156 23.52 23.52 0 0 0-2.12-1.254c-.238-.078-.748-.343-.732-.276a.152.152 0 0 1-.062-.037l-.602-.082a3.457 3.457 0 0 1-1.079-.318c-2.261-1.038-3.489-2.302-4.97-3.553a86.702 86.702 0 0 1-3.993-3.903c-2.564-2.652-4.998-5.388-7.399-8.149-4.792-5.53-9.387-11.19-13.923-16.898a932.856 932.856 0 0 1-26.245-35.002c-4.241-6.211-7.224-13.26-8.775-20.603-.8-3.715-1.094-7.36-1.579-10.946l-1.317-10.83c-3.426-28.899-6.618-57.826-8.576-86.904l-.106-1.595 3.184-.212.118 1.598c2.076 28.946 5.391 57.839 8.937 86.679l1.361 10.813c.504 3.616.822 7.232 1.578 10.624a53.944 53.944 0 0 0 8.288 19.242 965.822 965.822 0 0 0 26.225 34.682c4.501 5.685 9.066 11.321 13.793 16.788 2.359 2.727 4.756 5.432 7.241 8.006a83.153 83.153 0 0 0 3.797 3.725c1.251 1.116 2.74 2.383 3.817 2.836.134.069.245.111.211.081.029.003-.052.016.069.037l.607.084c.938.139 1.214.405 1.829.623.932.475 1.773.992 2.574 1.519a73.544 73.544 0 0 1 4.501 3.353c2.89 2.308 5.651 4.71 8.375 7.156 5.442 4.892 10.717 9.926 15.906 15.061 5.179 5.139 10.28 10.349 15.211 15.768a152.535 152.535 0 0 1 3.65 4.141c1.187 1.489 2.371 2.718 3.484 4.785.967 1.977 1.26 4.426.601 6.649-.612 2.245-2.227 4.114-4.215 5.252-2.007 1.146-4.503 1.364-6.674.776-2.312-.726-3.584-1.626-5.305-2.432a371.302 371.302 0 0 1-9.674-5.149c-6.398-3.533-12.696-7.274-18.807-11.335-6.09-4.088-12.053-8.447-17.385-13.714-1.353-1.283-2.549-2.783-3.787-4.215l-3.162-4.56c-2.017-2.802-4.409-5.523-6.846-8.166-9.816-10.574-20.417-20.543-31.016-30.453-10.633-9.942-21.435-19.499-32.262-29.406-10.598-10.228-19.339-22.567-25.16-36.052-12.294-26.476-21.362-54.709-24.539-83.88a197.628 197.628 0 0 1-.111-43.896c.441-3.646.967-7.28 1.637-10.892.729-3.611 1.363-7.177 2.642-10.811 1.264-3.577 3.288-6.948 5.974-9.663 2.711-2.653 6.139-4.692 9.81-5.192Z" fill="#100200" stroke="#000" stroke-miterlimit="10"/></svg>

<svg width="800" height="900" viewBox="0 0 800 900" fill="none" xmlns="http://www.w3.org/2000/svg">
<path d="M457.266 554.156L495.532 602.963C495.532 602.963 530.318 622.945 533.52 635.755C536.722 648.564 523.913 642.16 523.913 642.16L459.865 581.315L457.266 554.156Z" fill="white" stroke="black" stroke-width="5" stroke-miterlimit="10"/>
<path d="M457.266 554.156L495.532 602.963C495.532 602.963 530.318 622.945 533.52 635.755C536.722 648.564 523.913 642.16 523.913 642.16L459.865 581.315L457.266 554.156Z" stroke="black" stroke-width="5" stroke-miterlimit="10"/>
<path d="M460.195 581.905C456.374 560.895 454.444 509.373 459.195 482.141C461.162 470.839 482.818 430.946 463.067 398.782C440.008 361.233 405.057 301.028 420.707 275.844C432.066 257.574 387.616 244.089 387.616 244.089C387.616 244.089 394.687 289.454 384.477 307.868C374.273 326.282 348.149 347.366 348.404 386.864C348.654 426.356 357.46 459.981 358.795 490.404C360.127 520.826 348.678 573.459 344.578 584.521L395.816 638.961L460.195 581.905Z" fill="white" stroke="black" stroke-width="5" stroke-miterlimit="10"/>
<path d="M460.195 581.905C456.374 560.895 454.444 509.373 459.195 482.141C461.162 470.839 482.818 430.946 463.067 398.782C440.008 361.233 405.057 301.028 420.707 275.844C432.066 257.574 387.616 244.089 387.616 244.089C387.616 244.089 394.687 289.454 384.477 307.868C374.273 326.282 348.149 347.366 348.404 386.864C348.654 426.356 357.46 459.981 358.795 490.404C360.127 520.826 348.678 573.459 344.578 584.521L395.816 638.961L460.195 581.905Z" stroke="black" stroke-width="5" stroke-miterlimit="10"/>
<path d="M351.641 430.453C371.163 442.861 396.844 452.081 416.42 432.507C416.42 432.507 440.375 403.117 427.344 375.349C410.347 339.147 362.724 339.147 362.724 339.147" stroke="black" stroke-width="5" stroke-miterlimit="10"/>
<path d="M368.621 330.39C368.621 330.39 416.573 336.422 430.573 363.377C435.788 373.409 447.055 382.766 453.459 379.564" stroke="black" stroke-width="5" stroke-miterlimit="10"/>
<path d="M377.529 195.421C372.02 174.988 347.044 129.242 301.625 165.621C272.794 188.717 226.954 218.989 194.93 208.15C162.9 197.315 182.137 274.13 226.234 281.548C270.333 288.966 314.087 265.536 329.13 230.07C344.173 194.605 377.529 195.421 377.529 195.421Z" fill="#100200" stroke="black" stroke-width="5" stroke-miterlimit="10"/>
<path d="M387.019 267.362C380.132 258.037 383.71 247.591 380.264 235.313C374.786 215.815 396.6 193.295 419.187 191.852C449.013 189.949 463.304 295.593 446.369 299.505C436.338 301.819 416.778 295.502 401.266 280.275C396.275 275.38 387.019 267.362 387.019 267.362Z" fill="white" stroke="black" stroke-width="5" stroke-miterlimit="10"/>
<path d="M387.019 267.362C380.132 258.037 383.71 247.591 380.264 235.313C374.786 215.815 396.6 193.295 419.187 191.852C449.013 189.949 463.304 295.593 446.369 299.505C436.338 301.819 416.778 295.502 401.266 280.275C396.275 275.38 387.019 267.362 387.019 267.362Z" stroke="black" stroke-width="5" stroke-miterlimit="10"/>
<path d="M433.079 202.692C434.944 221.303 425.344 256.551 401.305 253.277C374.275 249.596 386.853 263.972 389.505 268.657C392.156 273.341 406.017 281.132 403.575 282.848C401.132 284.569 363.366 275.543 356.58 249.199C349.792 222.854 354.628 208.121 367.523 198.2C380.415 188.275 409.079 183.373 423.959 190.258C438.838 197.14 433.079 202.692 433.079 202.692Z" fill="#100200" stroke="black" stroke-width="5" stroke-miterlimit="10"/>
<path d="M350.985 555.695C373.664 510.349 448.146 582.732 459.866 581.313C482.283 587.718 603.973 690.195 616.782 712.611C624.73 726.514 619.985 728.622 616.782 735.027C613.58 741.431 610.378 747.836 565.545 747.836C520.711 747.836 437.449 719.016 421.438 709.407C405.427 699.799 386.212 699.8 379.807 699.8C373.402 699.8 366.997 712.61 366.997 712.61C366.997 712.61 360.592 725.42 366.997 731.825C373.402 738.229 370.199 738.229 370.199 738.229C370.199 738.229 344.581 741.431 341.379 735.027C338.177 728.622 338.177 725.42 338.177 715.812C338.177 706.204 344.582 703.002 344.582 693.396C344.582 683.79 344.582 677.385 347.784 670.98C350.986 664.575 363.795 670.98 363.795 670.98L399.022 680.587C386.212 677.385 376.605 674.182 376.605 674.182C365.488 670.48 357.478 668.85 350.986 664.575C350.986 664.575 328.57 645.361 328.57 619.742C328.57 594.123 338.177 578.111 338.177 578.111C338.177 578.111 347.783 562.099 350.985 555.695Z" fill="white" stroke="black" stroke-width="5" stroke-miterlimit="10"/>
<path d="M350.985 555.695C373.664 510.349 448.146 582.732 459.866 581.313C482.283 587.718 603.973 690.195 616.782 712.611C624.73 726.514 619.985 728.622 616.782 735.027C613.58 741.431 610.378 747.836 565.545 747.836C520.711 747.836 437.449 719.016 421.438 709.407C405.427 699.799 386.212 699.8 379.807 699.8C373.402 699.8 366.997 712.61 366.997 712.61C366.997 712.61 360.592 725.42 366.997 731.825C373.402 738.229 370.199 738.229 370.199 738.229C370.199 738.229 344.581 741.431 341.379 735.027C338.177 728.622 338.177 725.42 338.177 715.812C338.177 706.204 344.582 703.002 344.582 693.396C344.582 683.79 344.582 677.385 347.784 670.98C350.986 664.575 363.795 670.98 363.795 670.98L399.022 680.587C386.212 677.385 376.605 674.182 376.605 674.182C365.488 670.48 357.478 668.85 350.986 664.575C350.986 664.575 328.57 645.361 328.57 619.742C328.57 594.123 338.177 578.111 338.177 578.111C338.177 578.111 347.783 562.099 350.985 555.695Z" stroke="black" stroke-width="5" stroke-miterlimit="10"/>
<path d="M552.734 728.624C552.734 728.624 509.509 700.84 450.346 693.766C448.151 693.503 445.968 693.14 443.81 692.628C433.107 690.073 399.457 681.932 396.336 679.855" stroke="black" stroke-width="5" stroke-miterlimit="10"/>
<path d="M366.996 344.338C366.996 344.338 355.494 346.893 351.64 363.226C348.1 378.231 337.007 433.466 374.899 511.829C381.322 525.114 390.426 536.902 401.446 546.712C423.558 566.397 462.654 601.971 469.473 613.337C479.08 629.348 517.507 648.562 523.912 651.765C530.317 654.967 536.722 648.563 533.519 642.158C530.316 635.753 485.484 590.92 479.08 590.92C473.416 590.92 445.221 555.46 423.27 525.096C417.765 517.484 414.29 508.63 413.101 499.311C410.123 476.076 404.525 430.054 402.223 395.575" fill="white"/>
<path d="M366.996 344.338C366.996 344.338 355.494 346.893 351.64 363.226C348.1 378.231 337.007 433.466 374.899 511.829C381.322 525.114 390.426 536.902 401.446 546.712C423.558 566.397 462.654 601.971 469.473 613.337C479.08 629.348 517.507 648.562 523.912 651.765C530.317 654.967 536.722 648.563 533.519 642.158C530.316 635.753 485.484 590.92 479.08 590.92C473.416 590.92 445.221 555.46 423.27 525.096C417.765 517.484 414.29 508.63 413.101 499.311C410.123 476.076 404.525 430.054 402.223 395.575" stroke="black" stroke-width="5" stroke-miterlimit="10"/>
<path d="M366.996 344.338C360.322 347.509 356.27 353.676 354.142 360.205C352.209 366.886 350.959 374.172 350.143 381.265C348.607 395.582 348.651 410.093 350.315 424.428C353.491 453.162 362.481 481.039 374.686 507.22C380.415 520.436 388.849 532.261 399.169 542.209C409.81 551.915 420.802 561.617 431.426 571.524C442.076 581.454 452.701 591.407 462.689 602.129C465.181 604.834 467.615 607.571 469.847 610.666L472.902 615.063C474.048 616.371 475.12 617.734 476.408 618.941C481.433 623.901 487.266 628.174 493.246 632.164C499.246 636.142 505.467 639.832 511.803 643.315C514.973 645.055 518.164 646.749 521.385 648.395C522.935 649.148 524.782 650.218 525.956 650.533C527.282 650.881 528.677 650.759 529.841 650.096C532.255 648.787 533.187 645.648 531.872 643.106C531.275 641.963 530 640.454 528.901 639.13C527.75 637.773 526.555 636.424 525.34 635.093C520.477 629.767 515.391 624.591 510.244 619.497C505.09 614.409 499.836 609.414 494.457 604.59C491.761 602.185 489.035 599.821 486.239 597.594C484.847 596.473 483.425 595.417 481.997 594.438C481.275 593.967 480.565 593.535 479.877 593.184C479.639 593.106 479.129 592.841 479.145 592.908C479.124 592.902 479.105 592.891 479.083 592.871L478.481 592.789C477.989 592.727 477.68 592.596 477.402 592.471C475.141 591.433 473.913 590.169 472.432 588.918C471.047 587.652 469.72 586.347 468.439 585.015C465.875 582.363 463.441 579.627 461.04 576.866C456.248 571.336 451.653 565.676 447.117 559.968C438.085 548.498 429.391 536.892 420.872 524.966C416.631 518.755 413.648 511.706 412.097 504.363C411.297 500.648 411.003 497.003 410.518 493.417L409.201 482.587C405.775 453.688 402.583 424.761 400.625 395.683L400.519 394.088L403.703 393.876L403.821 395.474C405.897 424.42 409.212 453.313 412.758 482.153L414.119 492.966C414.623 496.582 414.941 500.198 415.697 503.59C417.174 510.467 419.998 517.05 423.985 522.832C432.414 534.532 441.226 546.162 450.21 557.514C454.711 563.199 459.276 568.835 464.003 574.302C466.362 577.029 468.759 579.734 471.244 582.308C472.482 583.596 473.746 584.848 475.041 586.033C476.292 587.149 477.781 588.416 478.858 588.869C478.992 588.938 479.103 588.98 479.069 588.95C479.098 588.953 479.017 588.966 479.138 588.987L479.745 589.071C480.683 589.21 480.959 589.476 481.574 589.694C482.506 590.169 483.347 590.686 484.148 591.213C485.719 592.289 487.207 593.408 488.649 594.566C491.539 596.874 494.3 599.276 497.024 601.722C502.466 606.614 507.741 611.648 512.93 616.783C518.109 621.922 523.21 627.132 528.141 632.551C529.376 633.904 530.591 635.278 531.791 636.692C532.978 638.181 534.162 639.41 535.275 641.477C536.242 643.454 536.535 645.903 535.876 648.126C535.264 650.371 533.649 652.24 531.661 653.378C529.654 654.524 527.158 654.742 524.987 654.154C522.675 653.428 521.403 652.528 519.682 651.722C516.43 650.053 513.209 648.337 510.008 646.573C503.61 643.04 497.312 639.299 491.201 635.238C485.111 631.15 479.148 626.791 473.816 621.524C472.463 620.241 471.267 618.741 470.029 617.309L466.867 612.749C464.85 609.947 462.458 607.226 460.021 604.583C450.205 594.009 439.604 584.04 429.005 574.13C418.372 564.188 407.57 554.631 396.743 544.724C386.145 534.496 377.404 522.157 371.583 508.672C359.289 482.196 350.221 453.963 347.044 424.792C345.372 410.237 345.345 395.485 346.933 380.896C347.374 377.25 347.9 373.616 348.57 370.004C349.299 366.393 349.933 362.827 351.212 359.193C352.476 355.616 354.5 352.245 357.186 349.53C359.897 346.877 363.325 344.838 366.996 344.338Z" fill="#100200" stroke="black" stroke-miterlimit="10"/>
</svg>
